assets/icons/24px/stroke/mouse-rectangular-wired-24px.svg

<svg width="24" height="24" viewBox="0 0 24 24" fill="none" xmlns="http://www.w3.org/2000/svg">
<path fill-rule="evenodd" clip-rule="evenodd" d="M9.06431 10.9387C9.00213 11.4012 9 12.0289 9 13L9 17C9 17.9711 9.00213 18.5988 9.06431 19.0613C9.12263 19.495 9.21677 19.631 9.2929 19.7071C9.36902 19.7832 9.50497 19.8774 9.93871 19.9357C10.4012 19.9979 11.0289 20 12 20C12.9711 20 13.5988 19.9979 14.0613 19.9357C14.495 19.8774 14.631 19.7832 14.7071 19.7071C14.7832 19.631 14.8774 19.495 14.9357 19.0613C14.9979 18.5988 15 17.9711 15 17L15 13C15 12.0289 14.9979 11.4012 14.9357 10.9387C14.8774 10.505 14.7832 10.369 14.7071 10.2929C14.631 10.2168 14.495 10.1226 14.0613 10.0643C13.5988 10.0021 12.9711 9.99999 12 10C11.0289 10 10.4012 10.0021 9.93871 10.0643C9.50497 10.1226 9.36902 10.2168 9.2929 10.2929C9.21677 10.369 9.12263 10.505 9.06431 10.9387ZM7.08214 10.6722C7.17028 10.0167 7.36902 9.38834 7.87868 8.87867C8.38835 8.36901 9.0167 8.17027 9.67221 8.08214C10.2839 7.9999 11.0477 7.99994 11.9342 7.99999L12.0658 7.99999C12.9523 7.99994 13.7161 7.9999 14.3278 8.08214C14.9833 8.17027 15.6117 8.36901 16.1213 8.87867C16.631 9.38834 16.8297 10.0167 16.9179 10.6722C17.0001 11.2839 17.0001 12.0477 17 12.9342L17 17.0658C17.0001 17.9523 17.0001 18.7161 16.9179 19.3278C16.8297 19.9833 16.631 20.6117 16.1213 21.1213C15.6117 21.631 14.9833 21.8297 14.3278 21.9179C13.7161 22.0001 12.9523 22 12.0658 22C12.044 22 12.022 22 12 22C11.978 22 11.956 22 11.9342 22C11.0477 22 10.2839 22.0001 9.67221 21.9179C9.0167 21.8297 8.38835 21.631 7.87868 21.1213C7.36902 20.6117 7.17028 19.9833 7.08215 19.3278C6.99991 18.7161 6.99995 17.9523 7 17.0658C7 17.044 7 17.022 7 17L7 12.9342C6.99995 12.0477 6.99991 11.2839 7.08214 10.6722Z" fill="white"/>
<path fill-rule="evenodd" clip-rule="evenodd" d="M13.0317 7.2834C13.0085 7.37321 13 7.54954 13 8.30789L13 11.5C13 12.0523 12.5523 12.5 12 12.5C11.4477 12.5 11 12.0523 11 11.5L11 8.30789C11 8.26407 10.9999 8.22077 10.9999 8.17802C10.9993 7.62262 10.9989 7.15685 11.095 6.78404C11.4798 5.29175 12.9326 4.33374 14.4558 4.56791C14.8364 4.62642 15.2643 4.81032 15.7746 5.02961C15.8139 5.0465 15.8536 5.06359 15.8939 5.08086C16.5909 5.37958 16.7564 5.44122 16.848 5.45531C17.3558 5.53337 17.8401 5.21403 17.9683 4.7166C17.9915 4.62679 18 4.45046 18 3.69212L18 3C18 2.44771 18.4477 2 19 2C19.5523 2 20 2.44772 20 3L20 3.69212C20 3.73593 20 3.77922 20.0001 3.82198C20.0006 4.37737 20.0011 4.84315 19.905 5.21596C19.5202 6.70825 18.0673 7.66626 16.5441 7.43209C16.1636 7.37358 15.7357 7.18968 15.2254 6.97038C15.1861 6.9535 15.1463 6.93641 15.1061 6.91915C14.409 6.62042 14.2436 6.55878 14.1519 6.54469C13.6442 6.46663 13.1599 6.78597 13.0317 7.2834Z" fill="white"/>
</svg>

<svg width="24" height="24" fill="none" xmlns="http://www.w3.org/2000/svg"><path fill-rule="evenodd" clip-rule="evenodd" d="M9.064 10.939C9.002 11.4 9 12.029 9 13v4c0 .971.002 1.599.064 2.061.059.434.153.57.229.646.076.076.212.17.646.229.462.062 1.09.064 2.061.064.971 0 1.599-.002 2.061-.064.434-.059.57-.153.646-.229.076-.076.17-.212.229-.646.062-.462.064-1.09.064-2.061v-4c0-.971-.002-1.599-.064-2.061-.059-.434-.153-.57-.229-.646-.076-.076-.212-.17-.646-.229C13.6 10.002 12.971 10 12 10c-.971 0-1.599.002-2.061.064-.434.059-.57.153-.646.229-.076.076-.17.212-.229.646zm-1.982-.267c.088-.655.287-1.284.797-1.793.51-.51 1.138-.709 1.793-.797C10.284 8 11.048 8 11.934 8h.132c.886 0 1.65 0 2.262.082.655.088 1.284.287 1.793.797.51.51.709 1.138.797 1.793.082.612.082 1.376.082 2.262v4.132c0 .886 0 1.65-.082 2.262-.088.655-.287 1.284-.797 1.793-.51.51-1.138.709-1.793.797-.612.082-1.376.082-2.262.082h-.132c-.886 0-1.65 0-2.262-.082-.655-.088-1.284-.287-1.793-.797-.51-.51-.709-1.138-.797-1.793C7 18.716 7 17.952 7 17.066v-4.132c0-.886 0-1.65.082-2.262z" fill="#fff"/><path fill-rule="evenodd" clip-rule="evenodd" d="M13.032 7.283c-.024.09-.032.267-.032 1.025V11.5a1 1 0 1 1-2 0V8.308v-.13c0-.555-.001-1.021.095-1.394a3 3 0 0 1 3.36-2.216c.381.058.81.242 1.32.462l.119.05c.697.3.862.361.954.375a1 1 0 0 0 1.12-.738c.023-.09.032-.267.032-1.025V3a1 1 0 1 1 2 0v.822c0 .555.001 1.021-.095 1.394a3 3 0 0 1-3.36 2.216c-.381-.058-.81-.242-1.32-.462l-.119-.05c-.697-.3-.862-.361-.954-.375a1 1 0 0 0-1.12.738z" fill="#fff"/></svg>
